assets/img/Airdrops/noun_global_2882877.svg

<svg width="61" height="69" viewBox="0 0 61 69" fill="none" xmlns="http://www.w3.org/2000/svg">
<path d="M30.5017 53.2184C30.3227 53.2184 30.1436 53.1721 29.9834 53.0793C23.3128 49.219 19.3306 42.4423 19.3306 34.9516C19.3306 31.1065 20.3429 27.2592 22.2582 23.8257C24.1686 20.401 26.8399 17.6293 29.9836 15.81C30.3042 15.6245 30.6996 15.6245 31.0201 15.81C34.1639 17.6293 36.8352 20.401 38.7456 23.8257C40.6608 27.2592 41.6732 31.1063 41.6732 34.9516C41.6732 42.4423 37.6908 49.219 31.0202 53.0793C30.8597 53.1721 30.6807 53.2184 30.5017 53.2184ZM30.5017 17.9143C25.0351 21.3544 21.4 28.1176 21.4 34.9516C21.4 41.4995 24.7902 47.447 30.5017 50.978C36.2132 47.447 39.6034 41.4995 39.6034 34.9516C39.6034 28.1176 35.9682 21.3544 30.5017 17.9143Z" fill="#5e2ced"/>
<path d="M44.7415 46.0582C44.5956 46.0582 44.448 46.0273 44.3085 45.9629C40.2219 44.078 35.4476 43.0818 30.5016 43.0818C25.5557 43.0818 20.7813 44.078 16.6948 45.9629C16.2509 46.1678 15.7235 46.0337 15.4314 45.6409C13.0085 42.3852 11.7279 38.5134 11.7279 34.4447C11.7279 30.3758 13.0085 26.504 15.4312 23.2481C15.7233 22.8557 16.2505 22.7214 16.6947 22.9262C20.7813 24.811 25.5556 25.8073 30.5015 25.8073C35.4474 25.8073 40.2219 24.811 44.3083 22.9262C44.7528 22.7214 45.2797 22.8555 45.5719 23.2481C47.9948 26.5043 49.2754 30.376 49.2754 34.4447C49.2754 38.5133 47.9948 42.3849 45.5721 45.6411C45.3716 45.9104 45.0605 46.0582 44.7415 46.0582ZM16.6163 25.1555C14.7694 27.9061 13.7975 31.1002 13.7975 34.4447C13.7975 37.7891 14.7694 40.9831 16.6163 43.7338C20.7912 41.9514 25.5717 41.0124 30.5016 41.0124C35.4316 41.0124 40.212 41.9514 44.387 43.7338C46.2339 40.983 47.2058 37.7889 47.2058 34.4447C47.2058 31.1003 46.2339 27.9063 44.387 25.1555C40.2121 26.938 35.4316 27.877 30.5016 27.877C25.5717 27.877 20.7913 26.938 16.6163 25.1555Z" fill="#5e2ced"/>
<path d="M30.5017 27.8771C25.2585 27.8771 20.1844 26.815 15.828 24.8057C15.5448 24.675 15.3356 24.4237 15.2586 24.1216C15.1816 23.8194 15.245 23.4987 15.4311 23.2484C18.9618 18.5035 24.5955 15.6709 30.5017 15.6709C36.4079 15.6709 42.0416 18.5035 45.5721 23.2482C45.7583 23.4984 45.8217 23.8193 45.7447 24.1214C45.6676 24.4236 45.4585 24.675 45.1752 24.8056C40.8188 26.8148 35.7449 27.8769 30.5017 27.8771ZM17.9189 23.4561C21.7212 24.9973 26.0417 25.8075 30.5017 25.8075C34.9616 25.8074 39.2821 24.9973 43.0845 23.4561C39.9099 19.8076 35.3932 17.7404 30.5017 17.7404C25.6102 17.7404 21.0936 19.8076 17.9189 23.4561Z" fill="#5e2ced"/>
<path d="M30.5017 53.2184C24.5955 53.2184 18.9617 50.3858 15.4313 45.641C15.2451 45.3909 15.1817 45.0701 15.2587 44.7678C15.3358 44.4657 15.5449 44.2144 15.828 44.0837C20.1843 42.0742 25.2583 41.0122 30.5017 41.0122C35.745 41.0122 40.819 42.0743 45.1754 44.0837C45.4586 44.2144 45.6678 44.4657 45.7448 44.7678C45.8218 45.0701 45.7584 45.3909 45.5723 45.641C42.0416 50.3858 36.4079 53.2184 30.5017 53.2184ZM17.9188 45.4332C21.0935 49.0817 25.6102 51.1488 30.5017 51.1488C35.3932 51.1488 39.9098 49.0817 43.0845 45.4332C39.2822 43.8918 34.9617 43.0818 30.5017 43.0818C26.0417 43.0818 21.721 43.8918 17.9188 45.4332Z" fill="#5e2ced"/>
<path d="M48.2406 35.4795H12.7627C12.1912 35.4795 11.7279 35.0162 11.7279 34.4447C11.7279 33.8732 12.1912 33.4099 12.7627 33.4099H48.2406C48.8121 33.4099 49.2754 33.8732 49.2754 34.4447C49.2754 35.0162 48.8121 35.4795 48.2406 35.4795Z" fill="#5e2ced"/>
<path d="M30.5016 53.2184C29.9301 53.2184 29.4668 52.7551 29.4668 52.1836V16.7057C29.4668 16.1342 29.9301 15.6709 30.5016 15.6709C31.0731 15.6709 31.5363 16.1342 31.5363 16.7057V52.1836C31.5363 52.7551 31.0731 53.2184 30.5016 53.2184Z" fill="#5e2ced"/>
<path d="M27.0761 62.9576C26.9004 62.9576 26.7225 62.9128 26.5596 62.8188L17.2321 57.4322L7.8998 52.0458C7.6621 51.9086 7.48855 51.6826 7.41745 51.4174C7.34634 51.1522 7.3836 50.8697 7.52093 50.632C8.04156 49.7306 8.04171 48.6115 7.52122 47.7116C6.9929 46.798 6.04696 46.2529 4.99046 46.2529C4.7161 46.2529 4.45282 46.1439 4.25873 45.9498C4.06464 45.7557 3.95569 45.4924 3.95569 45.2181V23.671C3.95569 23.0995 4.41897 22.6362 4.99046 22.6362C6.04696 22.6362 6.99304 22.0909 7.52107 21.1776C8.04156 20.2775 8.04156 19.1585 7.52093 18.2572C7.3836 18.0195 7.34634 17.737 7.41745 17.4718C7.4884 17.2068 7.66195 16.9806 7.8998 16.8434L17.2324 11.4568L26.5596 6.07011C26.7974 5.93278 27.0796 5.89567 27.3448 5.96663C27.6099 6.03759 27.8359 6.21098 27.9731 6.44869C28.4925 7.34805 29.4621 7.90668 30.5034 7.90668H30.5037C31.5411 7.90668 32.5111 7.34687 33.0358 6.44558C33.3222 5.95288 33.9536 5.78436 34.4476 6.06996L53.1024 16.8433C53.3399 16.9806 53.5133 17.2066 53.5844 17.4717C53.6554 17.7367 53.6183 18.0192 53.481 18.2569C52.9621 19.1553 52.9627 20.2753 53.4823 21.1802C54.0012 22.0772 54.9709 22.6361 56.0116 22.6361C56.5831 22.6361 57.0463 23.0994 57.0463 23.6709V45.2178C57.0463 45.4921 56.9374 45.7554 56.7433 45.9495C56.5492 46.1436 56.2859 46.2526 56.0116 46.2526C54.9709 46.2526 54.001 46.8115 53.4807 47.7113C52.9627 48.6133 52.9622 49.7334 53.481 50.6319C53.7668 51.1268 53.5973 51.7596 53.1024 52.0454L34.4476 62.8187C33.9536 63.1041 33.3227 62.9359 33.0358 62.4431C32.5111 61.5418 31.541 60.9818 30.5034 60.9818C29.4621 60.9818 28.4925 61.5406 27.9731 62.4401C27.7813 62.7721 27.4335 62.9576 27.0761 62.9576ZM30.5034 58.9124C31.9257 58.9124 33.2735 59.5275 34.2122 60.5649L51.2662 50.7161C50.837 49.389 50.9774 47.9148 51.6875 46.6783C52.4021 45.4428 53.6096 44.5838 54.9768 44.2924V24.5967C53.6096 24.3055 52.4024 23.4469 51.6892 22.2136C50.9777 20.9747 50.837 19.5001 51.2664 18.173L34.2122 8.32399C33.2736 9.36128 31.9259 9.97623 30.5038 9.97623C30.5035 9.97623 30.5035 9.97623 30.5032 9.97623C29.077 9.97623 27.729 9.36157 26.7931 8.32502L18.267 13.2491L9.73623 18.173C10.168 19.5035 10.0268 20.979 9.31271 22.2137C8.5996 23.447 7.39246 24.3055 6.02523 24.5968V44.2924C7.39232 44.5836 8.59945 45.442 9.31271 46.6753C10.0268 47.9101 10.168 49.3854 9.73623 50.7161L26.7933 60.5639C27.729 59.5269 29.0769 58.9124 30.5034 58.9124Z" fill="#5e2ced"/>
<path d="M30.5034 9.97654C27.7515 9.97654 25.5127 7.73774 25.5127 4.98583C25.5127 2.23659 27.7515 0 30.5034 0C33.2555 0 35.4944 2.23659 35.4944 4.98583C35.4943 7.73774 33.2555 9.97654 30.5034 9.97654ZM30.5034 2.06955C28.8927 2.06955 27.5822 3.37779 27.5822 4.98583C27.5822 6.59653 28.8927 7.907 30.5034 7.907C32.1142 7.907 33.4249 6.59653 33.4249 4.98583C33.4247 3.37779 32.1142 2.06955 30.5034 2.06955Z" fill="#5e2ced"/>
<path d="M56.0228 24.7026C54.2953 24.7026 52.6138 23.8096 51.6894 22.2146C50.3164 19.8275 51.1376 16.7686 53.518 15.3928C55.8999 14.0192 58.9568 14.8399 60.3336 17.222C60.3338 17.2223 60.3339 17.2224 60.3341 17.2227C61.7066 19.6019 60.8886 22.6588 58.5107 24.037C57.7263 24.488 56.8689 24.7026 56.0228 24.7026ZM56.0044 16.7958C55.5103 16.7958 55.0103 16.9211 54.5528 17.1849C53.159 17.9905 52.6781 19.7827 53.4817 21.1797C54.2869 22.5689 56.0792 23.0479 57.476 22.2446C58.8654 21.4393 59.3448 19.65 58.542 18.2573C58.0002 17.3206 57.015 16.7958 56.0044 16.7958Z" fill="#5e2ced"/>
<path d="M56.0063 54.1642C55.1407 54.1642 54.2862 53.9364 53.517 53.4905C52.3641 52.8275 51.5373 51.752 51.1918 50.464C50.8468 49.1776 51.0229 47.8328 51.6876 46.6773C53.0693 44.2929 56.129 43.4751 58.5094 44.8514C60.8884 46.2301 61.7063 49.287 60.3339 51.6664C60.3337 51.6665 60.3336 51.6668 60.3334 51.6671C59.6651 52.8234 58.5873 53.6496 57.2988 53.9934C56.8714 54.1078 56.4374 54.1642 56.0063 54.1642ZM56.0184 46.252C55.0078 46.252 54.0227 46.7759 53.48 47.7122C53.092 48.3867 52.9888 49.1746 53.1909 49.928C53.3928 50.681 53.8762 51.3098 54.5517 51.6984C55.2282 52.0903 56.0131 52.1948 56.7654 51.9941C57.5196 51.7929 58.1504 51.3089 58.542 50.6316C59.3448 49.2389 58.8654 47.4497 57.4732 46.6428C57.0149 46.3781 56.5137 46.252 56.0184 46.252Z" fill="#5e2ced"/>
<path d="M30.5034 68.8892C27.7515 68.8892 25.5127 66.6526 25.5127 63.9034C25.5127 61.1513 27.7515 58.9124 30.5034 58.9124C33.2555 58.9124 35.4944 61.1513 35.4944 63.9034C35.4943 66.6526 33.2555 68.8892 30.5034 68.8892ZM30.5034 60.982C28.8927 60.982 27.5822 62.2925 27.5822 63.9035C27.5822 65.5115 28.8927 66.8198 30.5034 66.8198C32.1142 66.8198 33.4249 65.5115 33.4249 63.9035C33.4247 62.2925 32.1142 60.982 30.5034 60.982Z" fill="#5e2ced"/>
<path d="M4.99732 54.1644C4.56331 54.1644 4.12663 54.1072 3.69646 53.9918C2.41054 53.6464 1.33659 52.8205 0.672265 51.6662C0.00572357 50.5146 -0.172405 49.1724 0.170696 47.8867C0.514537 46.598 1.34088 45.5201 2.49716 44.8519C3.64783 44.1851 4.9917 44.0071 6.28014 44.3514C7.57006 44.6962 8.64726 45.522 9.31336 46.6765C9.98049 47.8309 10.1577 49.1762 9.81227 50.4644C9.4671 51.7513 8.64164 52.8265 7.48802 53.4918C6.71785 53.9369 5.86298 54.1644 4.99732 54.1644ZM4.98653 46.2503C4.48067 46.2503 3.98221 46.3831 3.53371 46.6429C2.85534 47.035 2.37151 47.666 2.17017 48.4201C1.96958 49.1722 2.07394 49.9572 2.4642 50.6307C2.46464 50.6317 2.46523 50.6326 2.46582 50.6336C2.85401 51.3083 3.48182 51.7912 4.23322 51.9929C4.98727 52.1955 5.77562 52.0912 6.45325 51.6996C7.12866 51.3099 7.61145 50.6811 7.81338 49.9282C8.01546 49.1746 7.91168 48.3873 7.52098 47.7114C7.13102 47.0356 6.50085 46.5525 5.74561 46.3507C5.49431 46.2836 5.23946 46.2503 4.98653 46.2503Z" fill="#5e2ced"/>
<path d="M4.98536 24.7057C4.13907 24.7057 3.28212 24.4908 2.49762 24.0383C1.3406 23.3695 0.514403 22.2918 0.170563 21.003C-0.172538 19.7171 0.00559085 18.3747 0.672428 17.223C1.33734 16.0679 2.41247 15.2415 3.70003 14.8962C4.9864 14.5511 6.33131 14.7273 7.4867 15.392C9.87067 16.7735 10.6886 19.833 9.31249 22.2138C8.39095 23.8112 6.71107 24.7056 4.98536 24.7057ZM4.99867 16.794C4.74426 16.794 4.48837 16.8274 4.23619 16.8951C3.48317 17.097 2.85432 17.5804 2.46569 18.2561C2.46525 18.257 2.46465 18.2579 2.46406 18.2589C2.07381 18.9324 1.96944 19.7175 2.17019 20.4697C2.37138 21.2239 2.85521 21.8549 3.53239 22.2464C4.92741 23.0511 6.71654 22.5726 7.52026 21.1792C8.32635 19.7846 7.8468 17.9929 6.45178 17.1846C6.00328 16.926 5.50423 16.794 4.99867 16.794Z" fill="#5e2ced"/>
</svg>

<?xml version="1.0" encoding="utf-8"?>
<!-- Generator: Adobe Illustrator 24.0.1, SVG Export Plug-In . SVG Version: 6.00 Build 0)  -->
<svg version="1.1" id="Слой_1" xmlns="http://www.w3.org/2000/svg" xmlns:xlink="http://www.w3.org/1999/xlink" x="0px" y="0px"
	 viewBox="0 0 61 69" style="enable-background:new 0 0 61 69;" xml:space="preserve">
<style type="text/css">
	.st0{fill:#FFFFFF;}
</style>
<path class="st0" d="M30.5,53.2c-0.2,0-0.4,0-0.5-0.1C23.3,49.2,19.3,42.4,19.3,35c0-3.8,1-7.7,2.9-11.1c1.9-3.4,4.6-6.2,7.7-8
	c0.3-0.2,0.7-0.2,1,0c3.1,1.8,5.8,4.6,7.7,8c1.9,3.4,2.9,7.3,2.9,11.1c0,7.5-4,14.3-10.7,18.1C30.9,53.2,30.7,53.2,30.5,53.2z
	 M30.5,17.9c-5.5,3.4-9.1,10.2-9.1,17c0,6.5,3.4,12.5,9.1,16c5.7-3.5,9.1-9.5,9.1-16C39.6,28.1,36,21.4,30.5,17.9z"/>
<path class="st0" d="M44.7,46.1c-0.1,0-0.3,0-0.4-0.1c-4.1-1.9-8.9-2.9-13.8-2.9c-4.9,0-9.7,1-13.8,2.9c-0.4,0.2-1,0.1-1.3-0.3
	c-2.4-3.3-3.7-7.1-3.7-11.2c0-4.1,1.3-7.9,3.7-11.2c0.3-0.4,0.8-0.5,1.3-0.3c4.1,1.9,8.9,2.9,13.8,2.9s9.7-1,13.8-2.9
	c0.4-0.2,1-0.1,1.3,0.3c2.4,3.3,3.7,7.1,3.7,11.2c0,4.1-1.3,7.9-3.7,11.2C45.4,45.9,45.1,46.1,44.7,46.1z M16.6,25.2
	c-1.8,2.8-2.8,5.9-2.8,9.3c0,3.3,1,6.5,2.8,9.3c4.2-1.8,9-2.7,13.9-2.7c4.9,0,9.7,0.9,13.9,2.7c1.8-2.8,2.8-5.9,2.8-9.3
	c0-3.3-1-6.5-2.8-9.3c-4.2,1.8-9,2.7-13.9,2.7C25.6,27.9,20.8,26.9,16.6,25.2z"/>
<path class="st0" d="M30.5,27.9c-5.2,0-10.3-1.1-14.7-3.1c-0.3-0.1-0.5-0.4-0.6-0.7c-0.1-0.3,0-0.6,0.2-0.9
	c3.5-4.7,9.2-7.6,15.1-7.6s11.5,2.8,15.1,7.6c0.2,0.3,0.2,0.6,0.2,0.9c-0.1,0.3-0.3,0.6-0.6,0.7C40.8,26.8,35.7,27.9,30.5,27.9z
	 M17.9,23.5c3.8,1.5,8.1,2.4,12.6,2.4c4.5,0,8.8-0.8,12.6-2.4c-3.2-3.6-7.7-5.7-12.6-5.7S21.1,19.8,17.9,23.5z"/>
<path class="st0" d="M30.5,53.2c-5.9,0-11.5-2.8-15.1-7.6c-0.2-0.3-0.2-0.6-0.2-0.9c0.1-0.3,0.3-0.6,0.6-0.7c4.4-2,9.4-3.1,14.7-3.1
	c5.2,0,10.3,1.1,14.7,3.1c0.3,0.1,0.5,0.4,0.6,0.7c0.1,0.3,0,0.6-0.2,0.9C42,50.4,36.4,53.2,30.5,53.2z M17.9,45.4
	c3.2,3.6,7.7,5.7,12.6,5.7s9.4-2.1,12.6-5.7c-3.8-1.5-8.1-2.4-12.6-2.4S21.7,43.9,17.9,45.4z"/>
<path class="st0" d="M48.2,35.5H12.8c-0.6,0-1-0.5-1-1c0-0.6,0.5-1,1-1h35.5c0.6,0,1,0.5,1,1C49.3,35,48.8,35.5,48.2,35.5z"/>
<path class="st0" d="M30.5,53.2c-0.6,0-1-0.5-1-1V16.7c0-0.6,0.5-1,1-1c0.6,0,1,0.5,1,1v35.5C31.5,52.8,31.1,53.2,30.5,53.2z"/>
<path class="st0" d="M27.1,63c-0.2,0-0.4,0-0.5-0.1l-9.3-5.4L7.9,52c-0.2-0.1-0.4-0.4-0.5-0.6c-0.1-0.3,0-0.5,0.1-0.8
	c0.5-0.9,0.5-2,0-2.9C7,46.8,6,46.3,5,46.3c-0.3,0-0.5-0.1-0.7-0.3C4.1,45.8,4,45.5,4,45.2V23.7c0-0.6,0.5-1,1-1
	c1.1,0,2-0.5,2.5-1.5c0.5-0.9,0.5-2,0-2.9c-0.1-0.2-0.2-0.5-0.1-0.8c0.1-0.3,0.2-0.5,0.5-0.6l9.3-5.4l9.3-5.4
	c0.2-0.1,0.5-0.2,0.8-0.1C27.6,6,27.8,6.2,28,6.4c0.5,0.9,1.5,1.5,2.5,1.5h0c1,0,2-0.6,2.5-1.5C33.3,6,34,5.8,34.4,6.1l18.7,10.8
	c0.2,0.1,0.4,0.4,0.5,0.6c0.1,0.3,0,0.5-0.1,0.8c-0.5,0.9-0.5,2,0,2.9c0.5,0.9,1.5,1.5,2.5,1.5c0.6,0,1,0.5,1,1v21.5
	c0,0.3-0.1,0.5-0.3,0.7c-0.2,0.2-0.5,0.3-0.7,0.3c-1,0-2,0.6-2.5,1.5c-0.5,0.9-0.5,2,0,2.9c0.3,0.5,0.1,1.1-0.4,1.4L34.4,62.8
	c-0.5,0.3-1.1,0.1-1.4-0.4c-0.5-0.9-1.5-1.5-2.5-1.5c-1,0-2,0.6-2.5,1.5C27.8,62.8,27.4,63,27.1,63z M30.5,58.9
	c1.4,0,2.8,0.6,3.7,1.7l17.1-9.8c-0.4-1.3-0.3-2.8,0.4-4c0.7-1.2,1.9-2.1,3.3-2.4V24.6c-1.4-0.3-2.6-1.1-3.3-2.4
	c-0.7-1.2-0.9-2.7-0.4-4L34.2,8.3c-0.9,1-2.3,1.7-3.7,1.7c0,0,0,0,0,0c-1.4,0-2.8-0.6-3.7-1.7l-8.5,4.9l-8.5,4.9
	c0.4,1.3,0.3,2.8-0.4,4c-0.7,1.2-1.9,2.1-3.3,2.4v19.7c1.4,0.3,2.6,1.1,3.3,2.4c0.7,1.2,0.9,2.7,0.4,4l17.1,9.8
	C27.7,59.5,29.1,58.9,30.5,58.9z"/>
<path class="st0" d="M30.5,10c-2.8,0-5-2.2-5-5c0-2.7,2.2-5,5-5c2.8,0,5,2.2,5,5C35.5,7.7,33.3,10,30.5,10z M30.5,2.1
	c-1.6,0-2.9,1.3-2.9,2.9c0,1.6,1.3,2.9,2.9,2.9c1.6,0,2.9-1.3,2.9-2.9C33.4,3.4,32.1,2.1,30.5,2.1z"/>
<path class="st0" d="M56,24.7c-1.7,0-3.4-0.9-4.3-2.5c-1.4-2.4-0.6-5.4,1.8-6.8c2.4-1.4,5.4-0.6,6.8,1.8c0,0,0,0,0,0
	c1.4,2.4,0.6,5.4-1.8,6.8C57.7,24.5,56.9,24.7,56,24.7z M56,16.8c-0.5,0-1,0.1-1.5,0.4c-1.4,0.8-1.9,2.6-1.1,4
	c0.8,1.4,2.6,1.9,4,1.1c1.4-0.8,1.9-2.6,1.1-4C58,17.3,57,16.8,56,16.8z"/>
<path class="st0" d="M56,54.2c-0.9,0-1.7-0.2-2.5-0.7c-1.2-0.7-2-1.7-2.3-3c-0.3-1.3-0.2-2.6,0.5-3.8c1.4-2.4,4.4-3.2,6.8-1.8
	c2.4,1.4,3.2,4.4,1.8,6.8c0,0,0,0,0,0c-0.7,1.2-1.7,2-3,2.3C56.9,54.1,56.4,54.2,56,54.2z M56,46.3c-1,0-2,0.5-2.5,1.5
	c-0.4,0.7-0.5,1.5-0.3,2.2c0.2,0.8,0.7,1.4,1.4,1.8c0.7,0.4,1.5,0.5,2.2,0.3c0.8-0.2,1.4-0.7,1.8-1.4c0.8-1.4,0.3-3.2-1.1-4
	C57,46.4,56.5,46.3,56,46.3z"/>
<path class="st0" d="M30.5,68.9c-2.8,0-5-2.2-5-5c0-2.8,2.2-5,5-5c2.8,0,5,2.2,5,5C35.5,66.7,33.3,68.9,30.5,68.9z M30.5,61
	c-1.6,0-2.9,1.3-2.9,2.9c0,1.6,1.3,2.9,2.9,2.9c1.6,0,2.9-1.3,2.9-2.9C33.4,62.3,32.1,61,30.5,61z"/>
<path class="st0" d="M5,54.2c-0.4,0-0.9-0.1-1.3-0.2c-1.3-0.3-2.4-1.2-3-2.3c-0.7-1.2-0.8-2.5-0.5-3.8c0.3-1.3,1.2-2.4,2.3-3
	C3.6,44.2,5,44,6.3,44.4c1.3,0.3,2.4,1.2,3,2.3c0.7,1.2,0.8,2.5,0.5,3.8c-0.3,1.3-1.2,2.4-2.3,3C6.7,53.9,5.9,54.2,5,54.2z M5,46.3
	c-0.5,0-1,0.1-1.5,0.4c-0.7,0.4-1.2,1-1.4,1.8C2,49.2,2.1,50,2.5,50.6c0,0,0,0,0,0c0.4,0.7,1,1.2,1.8,1.4c0.8,0.2,1.5,0.1,2.2-0.3
	c0.7-0.4,1.2-1,1.4-1.8c0.2-0.8,0.1-1.5-0.3-2.2c-0.4-0.7-1-1.2-1.8-1.4C5.5,46.3,5.2,46.3,5,46.3z"/>
<path class="st0" d="M5,24.7c-0.8,0-1.7-0.2-2.5-0.7c-1.2-0.7-2-1.7-2.3-3c-0.3-1.3-0.2-2.6,0.5-3.8c0.7-1.2,1.7-2,3-2.3
	c1.3-0.3,2.6-0.2,3.8,0.5c2.4,1.4,3.2,4.4,1.8,6.8C8.4,23.8,6.7,24.7,5,24.7z M5,16.8c-0.3,0-0.5,0-0.8,0.1
	c-0.8,0.2-1.4,0.7-1.8,1.4c0,0,0,0,0,0c-0.4,0.7-0.5,1.5-0.3,2.2c0.2,0.8,0.7,1.4,1.4,1.8c1.4,0.8,3.2,0.3,4-1.1
	c0.8-1.4,0.3-3.2-1.1-4C6,16.9,5.5,16.8,5,16.8z"/>
</svg>
